X:150
T: Summerhill #2 (polka)
C: S.O Driscoll
Z: B.Black
M: 2/4
L: 1/8
R: polka
K: G
DG GA | B2 AG | FA AB | c/2B/2A FD |
DG BA | B2 AG | Ad c/2B/2A | AG G2 :|
gG gG | g2 f/2g/2e | fd d/2c/2B | AB cA |
gG gG | g2 f/2g/2e | fd d/2c/2A | AG G2 :|
